X:57
M:C
L:1/8
Q:"Allegretto  "1/4=140
K:G
!p!D|G>GGG F2 GA|BE[A^C]G [FD]DEF|\
!mf!Lg|.f.e.[dB].[cA] .[BG].A.GLg|\
.f.e.[dB].[cA] .[BG].A.GLg|\
fe[dB][cA] [BG][BG][cA][dB]|\
[ec]D[A^C]G ([FD]DEF)|
d|[gB]>g[gB][gB] f2c2 [gB][fd]|\
[ec][dB][cA][BG] [AF][BG][cA][^cG]|\
[dF]>ddd L[^c2G2] [dF][eA]|\
([fd][ge])[eG]>[dF] [d2F2] z[BF]|
[cE]>[cE][cE][cE] L[B2D2] [cE][d=F]|\
[eG]EAG ([FC]DEF)|\
[G2B,2] "_ad lib."G>G([F2C2] [GB,])e/c/"_'a tempo.'"|\
[BG]>c [AD]>B [G2B,2] z||

